X: 15775
T: Good Morning To Your Nightcap
R: reel
M: 4/4
K: Adorian
e4 d3B|cBcd e2d2|ecec dedB|cBBG E2D2|
e3c d3B|cBcd egd2|(3efg fa gedB|cBAG E2D2||
EAAc BGGB|cBcd e2d2|EAAc BGGB|cBAG EGD2|
EAAc BGGB|cBcd egd2|(3efg fa gedB|cBAG E2D2||

